X:423
T:Joshua fought the battle of Jericho
T:Negro spiritual
C:anon.
O:USA
R:Negro spiritual
Z:Transcribed by Frank Nordberg - http://www.musicaviva.com
F:http://abc.musicaviva.com/tunes/usa/joshua-fought/joshua-fought-1.abc
M:C
L:1/8
K:Dm
"Dm"D^CDE FF G2|"Dm"A A2 A-A4|"A7"G G2 G-G4|"Dm"A A2 A-A4|
w:Josh- ua fought the bat- tle of Jer- i- cho,_ Jer- i- cho,_ Jer- i- cho,_
"Dm"D^CDE FF G2|"Dm"A A2 A-A2 FG|"A7"A2 G2 F2 E2|"Dm"D6"^Fine"||dd|
w:Josh- ua fought the bat- tle of Jer- i- cho,_ and the wakks came tumb- ling down. You may
"Dm"dA AA A3 A|"Dm"A A3- "A7"A2 AA|"Dm"AA AA A2 A2|"A7"A6 ^c2|
w:talk a- bout your man of Gi- deon,_ you may talk a- bout your man of Saul, There's
"Dm"d2 A2 "A7"A A3|"Dm"A2 A2- "A7"A2 AA|"Dm"AA G2 "A7"E2 D2|"Dm"D8|]
w:none like good old Josh- ua_ At the bat- tle of Jer- i- cho.
W:
W:  Joshua fought the battle of Jericho, Jericho, Jericho,
W:  Joshua fought the battle of Jericho, and the wallks came tumbling down.
W:
W:You may talk about your man of Gideon,
W:you may talk about your man of Saul,
W:There's none like good old Joshua
W:At the battle of Jericho.
W:  Joshua fought the battle of...
W:
W:Up to the walls of Jericho;
W:He marched with spear in hand,
W:"Go blow those ramhorns," Joshua cried,
W:"Cause the battle is in my hand."
W:  Joshua fought the battle of...
W:
W:Then the lamb, ram, sheephorns began to blow,
W:trumpets began to sound.
W:Joshua commanded the children to shout,
W:And the walls came tumbling down.
W:  Joshua fought the battle of...
W:
W:
W:  From Musica Viva - http://www.musicaviva.com
W:  the Internet center for free sheet music downloads.

